X:1
T:Der höchste Schatz
T:Ulrich Braetel
T:Source : DDT 34---Leipzig---Breitkopf & Härtel---J.Wolf---1908. First print : Newe Deudsche Geistliche Gesenge---Wittemberg---G.Rhau---1544. Editor : André Vierendeels (11/08/17). 
T:Notes : Original clefs : C1, C3, C3, F4 Original note values have been halved Editorial accidentals above the staff
T:Der höchste Schatz
T:©
T:©
T:©
T:©
T:©
T:©
C:Ulrich Braetel
Z:©
%%score [ 1 [ 2 3 ] 4 ]
L:1/8
Q:1/4=120
M:2/2
K:C
V:1 treble nm="Soprano" snm="S"
V:2 treble-8 nm="Tenor 1" snm="T 1"
V:3 treble-8 nm="Tenor 2" snm="T 2"
V:4 bass nm="Bass" snm="B"
V:1
 c8 | d4 d4 | B4 G4 | c3 B AG A2- | AG F3 E D2- | D2 G3 FED | C2 c2 BAGF | G2 c4 B2 | c4 z2 G2 | %9
w: Der|höch- ste|Schatz Gott|sel- * * * *||||* * ber|ist, durch|
w: Wer|e- ben|schaut und|ihm _ _ _ _|_ _ _ _ _|||* * ver-|traut, auch|
 A2 c2 B4 | A4 d4 | G3 A Bc B2- | BA A4 G2 | A4 z2 A2 | GABc d4 | c2 A2 c4 | B4 A3 G | %17
w: Je- * sum|Christ, sich|ge- * * * *|* * * ben|hat aus|son _ _ _ _|der Gnad in|Tod für _|
w: auf _ ihn|baut be-|stän- * * * *|* * * dig-|lich, im|Geist _ _ _ wahr-|lich den will|er hie _|
 F2 E2 D2 G2 | A2 B4 A2- | AG G4 F2 |1 G8 :|2 AG G4 F2 || G4 z2 G2 | AG c4 B2 | c6 A2- | %25
w: _ un- * *|ser Le- *||ben.||hen, aus|die- * * sem|Tal, dem|
w: _ er- hö- *||||||||
 A2 d4 B2- | B2 e3 d c2- | cB A2 d3 c | BA d4 c2 | d4 z2 d2 | c2 BA B2 A2- | AG G4 F2 | G4 z4 | %33
w: _ A- dans|_ Fall _ soll|_ _ _ scha- *|* * * den|nicht. Wer|klopft _ _ _ und|_ _ _ _|bitt't,|
w: ||||||||
 z2 E3 F G2 | A2 c2 B2 G2 | AG c4 B2 | c4 z2 G2 | A2 A2 G2 c2 | B2 B2 A2 A2 | A2 A2 G2 E2 | F4 E4 | %41
w: des _ _|will er sich er-|bar- * * *|men und|las- sen ein, und|las- sen ein, und|las- sen ein die|jün- *|
w: ||||||||
 D2 d2 B2 c2 | z2 G3 E F2 | G2 d2 d2 c2 | d4 z4 | z2 d2 c2 B2 | A4 G3 A | B2 c4 BA | GABc B2 A2- | %49
w: * * ger sein,|zu al- ler|Zeit, die Güt- tig-|keit|be- wei- sen|an den _|_ Ar- * *||
w: ||||||||
 AG G4 F2 | G8- | G8- | G8 |] %53
w: |men.|_||
w: ||||
V:2
 z8 | f8 | g4 g4 | e4 c2 f2- | fe d3 c B2- | BA G4 c2 | G2 A2 B3 A | B2 c2 G2 g2 | gfed c2 e2 | %9
w: |Der|höch- ste|Schatz Gott sel-||||* * * ber|ist, _ _ _ _ durch|
w: |Wer|e- ben|schaut und ihm|_ _ _ _ _|||* * * ver-|traut, _ _ _ _ auch|
 f4 g2 de | f2 c2 d2 f2 | e4 d2 g2 | f2 ed e4 | c2 d2 A2 c2- | cB B3 A A2- | A2 d2 cdef | %16
w: Je sum Chri- ist|_ _ _ sich|ge- * *|* * * ben|hat [aus son _|_ _ der _ Gnad,]|_ aus son- * * *|
w: auf ihn _ _|baut _ _ be-|stän- * *|* * * dig-|lich, [im Geist _|_ _ wahr- * lich,]|_ im Geist _ _ _|
 g4 e2 f2 | F2 G2 z2 B2 | AG g2 f3 e | d2 c2 d4- |1 d8 :|2"^-" d2 c2 d3 c || BG g3 fed | c2 e2 d4 | %24
w: * * der|Ge- nad in|Tod- * für un- ser|Le- * ben.|_|hö- * * *||hen aus die-|
w: _ _ wahr-|* lich, den|will _ er hie er-||||||
 e2 c4 f2- | f2 d4 g2- | ge e4 a2- | a2 f3 e d2- | d2 g2 a3 g | fe d3 cBA | GABc de f2- | %31
w: sem Tal, dem|_ A- dams|_ _ Fall soll|_ scha- * *|||den _ _ _ _ _ nicht.|
w: |||||||
 f2 e3 d d2- | d2 c2 d4 | G8 | z2 A2 B2 c2 | e2 f2 g4 | e8 | z2 f2 e2 e2 | g2 g2 f4 | f4 e2 c2- | %40
w: _ Wer _ klopft|_ _ und|bitt't,|des will er|sich er- bar-|men|und las- sen|ein die jün-|ger sein, _|
w: |||||||||
 cdef g4 | z2 a2 g2 f2 | g2 e2 d4 | g3 f e4 | d4 z4 | z2 d2 ed g2- | g2 f2 g4- | g8 | z2 g2 f3 e | %49
w: _ _ _ _ _|zu al- ler|Zeit die Güt-|* * tig-|keit|die Güt- * *|* tig- keit|_|be- wei- sen|
w: |||||||||
 d2 c2 d4 | B2 e4 dc | d2 e4 d2 | d8 |] %53
w: an den Ar-|||men.|
w: ||||
V:3
 z8 | z8 | z8 | c8 | d4 d4 | B4 G4 | c4 d2 e2- | e2 f2 d4 | c8 | z4 G4 | A4 B4 | c4 B2 d2- | %12
w: |||Die|höch- ste|Schatz Gott|sel- * *|* * ber|ist,|durch|Je- sum|Christ sich ge-|
w: |||Wer|e- ben|schaut und|ihm _ _|_ _ ver-|traut,|auch|auf ihn|baut be- stän-|
 dcBA B4 | A8 | z4 d4 | f4 e4 | d4 c2 d2- | d2 g2 f2 e2 | d6 c2- | cBAG A4 |1 G8 :|2"^-" cBAG A4 || %22
w: * * * * ben|hat|aus|son- der|Gnad in Tod|_ für un- ser|Le- *||ben.||
w: * * * * dig-|lich,|im|Geist wahr-|lich, den will|_ er hie er-|hö- *||||
 G8 | z4 G4 | c4 A4 | B4 z2 B2 | e4 c4 | f4 d2 g2- | gfed e4 | d8 | z4 d4 | c2 B2 A4 | G4 B4 | %33
w: hen|aus|die- sem|Tal, dem|A- dams|Fall soll scha-|* * * * den|nicht.|Wer|klopft _ und|bitt't, des|
w: |||||||||||
 c6 B2 | A4 d2 e2- | e2 dc d4 | c8 | z4 c4 | d4 d4 | c6 c2 | c2 c2 G3 A | Bc d4 c2 | B2 c2 A4 | %43
w: will er|sich er- bar-||men|und|las- sen|ein die|jün- ger sein _|_ _ _ zu|al- * ler|
w: ||||||||||
 G4 z2 A2 | B2 d4 c2 | d4 z4 | d4 e4 | d2 e4 dc | B2 A2 d2 c2 | B2 AG A4 | G8- | G8- | G8 |] %53
w: Zeit die|Güt- * tig-|keit|be- wei-|sen an _ _|_ den Ar- *||men.|_||
w: ||||||||||
V:4
 z8 | z8 | G,8 | A,4 A,4 | F,4 D,4 | G,3 F, E,D, C,2- | C,B,, A,,2 G,,2 G,2- | G,2 F,2 G,4 | %8
w: ||Die|höch- ste|Schatz Gott|sel- * * * *||* ber ist,|
w: ||Wer|e- ben|schaut und|ihm _ _ _ _|_ _ _ _ _|* ver- traut,|
 C,3 D, E,2 C,2 | F,2 A,2 G,4 | F,3 E, D,4 | C,4 G,3 F, | D,2 F,2 E,4 | z2 D,2 F,4 | E,4 D,4 | %15
w: duch _ _ Je-|* * sum|Christ _ _|sich ge- *|* ben hat|aus son-|der Gnad|
w: auch _ _ auf|_ _ ihn|baut _ _|be- stän- *|* dig- lich,|im Geist|wahr- lich,|
 z2 D,2 A,2 C2 | G,4 A,G,F,E, | D,2 C,2 D,2 E,2 | F,2 G,2 D,2 F,2- | F,2 E,2 D,4 |1 G,,8 :|2 %21
w: in Tod für|un- * * * *|* * * ser|Le- * * *||ben.|
w: den will er|hie er- * * *||hö- * * *|||
 F,2 E,2 D,4 || G,,2 C,3 D, E,2 | F,2 C,2 G,4 | z2 C,2 F,4 | D,4 G,4 | z2 E,2 A,4 | F,4 _B,2 B,2 | %28
w: |hen aus _ _|die- sem Tal,|dem A-|dams Fall,|dem A-|dams Fall soll|
w: |||||||
 G,2 _B,2 A,4 | z2 D,2 G,4 | C,2 G,3 F, F,2- | F,2 G,2 D,4 | E,3 F, D,4 | C,4 z2 E,2 | %34
w: scha- den nicht.|Wer klopft|und _ _ Bitt't|_ _ des|will- * er|sich er-|
w: ||||||
 F,3 E, D,2 C,2 | C2 A,2 G,4 | C,6 C,2 | F,2 F,2 C,2 C,2 | G,2 G,2 D,2 D,2 | F,2 F,2 C,4 | %40
w: bar _ men, er-|bar- * *|men und|las- sen ein die|jün- ger sein, die|jün- ger sein,|
w: ||||||
 z2 C,3 D,E,F, | G,2 F,2 G,2 A,2 | G,2 C,2 D,4 | z8 |"^#" z2 G,2 F,2 E,2 | D,4 z4 | %46
w: zu _ _ _|al- ler Zeit die|Güt- tig- keit||be- wei _|sen,|
w: ||||||
 z2 F,2 E,2 C,2 | G,2 C,2 C,D,E,F, | G,4 D,2 F,2 | G,2 E,2 D,4 | G,,2 C,4 B,,A,, | B,,2 C,4 G,,2 | %52
w: [be- wei- sen]|an de Ar- * * *|||||
w: ||||||
 G,,8 |] %53
w: men.|
w: |

